!!!COM: Bach, Johann Sebastian
!!!OPR: Joh. Seb. Bachs vierstimmige Choralgesänge
!!!XEN: Four-part Chorales
!!!OTL: 19. Befiehl du deine Wege
!!!SCT: BWV 271
!!!SCA: Thematisch-systematisches Verzeichnis der musikalischen Werke Johann Sebastian Bach: Bach-Werke-Verzeichnis (Schmieder)
!!!YOR: Bach Gesellschaft Edition xxxix
!!!ENC: Steven Rasmussen
!!!CDT: 1685/3//-1750/7/28/
!!!OCY: Deutschland
!!!YEC: Copyright (c) 1994, 2000 Center for Computer Assisted Research in the Humanities
!!!YEM: Rights to all derivative editions reserved
!!!YEN: United States of America
**kern	**silbe	**kern	**silbe	**kern	**kern
*I:[SOPRANO]	*I:[SOPRANO]	*I:[ALTO]	*I:[ALTO]	*I:[TENORE]	*I:[BASSO]
*>[A,A,B]	*	*>[A,A,B]	*	*>[A,A,B]	*>[A,A,B]
*>A	*	*>A	*	*>A	*>A
*clefG2	*	*clefG2	*	*clefGv2	*clefF4
*k[f#c#]	*	*k[f#c#]	*	*k[f#c#]	*k[f#c#]
*b:	*	*b:	*	*b:	*b:
*M4/4	*	*M4/4	*	*M4/4	*M4/4
4f#	Be-der	4d	.	4A	4D
=1	=1	=1	=1	=1	=1
4b	-fiehlal-	4d	.	4G	4G
4a	du-ler-	4d	.	4A	4F#
4g	dei--treu-	4e	.	8BL	4E
.	.	.	.	8c#J	.
4f#	-ne-sten	4A	.	4d	4D
=2	=2	=2	=2	=2	=2
2e	We-Pfle-	(4B	.	(4d	(4GG
.	.	4A)	.	4c#)	4AA)
4f#;	-ge,-ge	4A;	.	4d;	4D;
4cc#	unddes,	4f#	.	4c#	4AA#
=3	=3	=3	=3	=3	=3
4dd	wasder	4f#	.	4c#	8BBL
.	.	.	.	.	8C#J
4dd	deinden	4f#	.	4B	8DL
.	.	.	.	.	8EJ
8cc#L	Her-Him-	4f#	.	4B	4F#
8bJ	.	.	.	.	.
4cc#	-ze-mel	8f#L	.	4A#	4FF#
.	.	8eJ	.	.	.
=4	=4	=4	=4	=4	=4
2.b;	krÃ¤nkt,lenkt.	2.d;	.	2.B;	2.BB;
=:|!	=:|!	=:|!	=:|!	=:|!	=:|!
*>B	*	*>B	*	*>B	*>B
4dd	Der	4f#	.	8BL	4B
.	.	.	.	8AJ	.
=5	=5	=5	=5	=5	=5
8cc#L	Wol-	4g	.	4G	4E
8bJ	.	.	.	.	.
4a	-ken,	8f#L	.	8dL	4F#
.	.	8eJ	.	8c#J	.
4b	Luft	4d	.	8BL	8GL
.	.	.	.	8AJ	8F#J
4cc#	und	4g	.	8GL	4E
.	.	.	.	8AJ	.
=6	=6	=6	=6	=6	=6
2dd	Win-	(4g	.	(4B	2D
.	.	8f#L	.	8AL	.
.	.	8eJ)	.	8GJ)	.
4dd;	-den	4f#;	.	4A;	4D;
4a	gibt	4f#	.	4d	4D
=7	=7	=7	=7	=7	=7
4b	We-	4g	.	4d	8GL
.	.	.	.	.	8F#J
4a	-ge,	4f#	.	4cn	8EL
.	.	.	.	.	8D#J
4g	Lauf	4f#	.	4B	8EL
.	.	.	.	.	8F#J
4g	und	4e	.	4B	8GL
.	.	.	.	.	8EJ
=8	=8	=8	=8	=8	=8
2.f#;	Bahn,	2.d#;	.	2.B;	2.B;
4dd	der	4e	.	4B	4G#
=9	=9	=9	=9	=9	=9
8cc#L	wird	4e	.	8AL	4A
8ddJ	.	.	.	8BJ	.
4ee	auch	8aL	.	4c#	4AA
.	.	8g#J	.	.	.
4dd	We-	8f#L	.	4d	4BB
.	.	8g#J	.	.	.
4cc#	-ge	4a	.	4e	4C#
=10	=10	=10	=10	=10	=10
2b	fin-	(4a	.	(4f#	(4D
.	.	4g#)	.	4e)	4E)
4cc#;	-den,	4a;	.	4e;	4AA;
4f#	die	4A	.	8dL	4D
.	.	.	.	8c#J	.
=11	=11	=11	=11	=11	=11
4g	dein	4e	.	8BL	4E
.	.	.	.	8c#J	.
4f#	Fuss	8AL	.	4d	8F#L
.	.	8BJ	.	.	8GJ
4e	ge-	8c#L	ge-	8AL	8AL
.	.	8dJ	.	8BJ	8G
8aL	-hen	[4e	.	[4c#	8F#
8gJ	.	.	.	.	8EJ
=12	=12	=12	=12	=12	=12
2.f#;	kann.	8eL]	.	8c#L]	4D
.	.	8c#J	.	8F#J	.
.	.	4d	-hen	4B	8C#L
.	.	.	.	.	8BBJ
.	.	4c#;	kann.	4A#;	4F#;
==|!	==|!	==|!	==|!	==|!	==|!
*-	*-	*-	*-	*-	*-
!!!RWG: Key is interpreted using the Humdrum key tool.
!!!END: 1994/05/09
!!!EMD: Converted from MuseData to Humdrum Dec 19, 2000, by Andreas Kornstaedt using muse2kern.
!!!EED: Craig Stuart Sapp
!!!EEV: 2024/03/31
!!!ONB: Some non-unicode characters
